wp-content/themes/julialandauer/images/envelope.svg

<svg width="30px" height="25px" viewBox="0 0 19 14" version="1.1" xmlns="http://www.w3.org/2000/svg" xmlns:xlink="http://www.w3.org/1999/xlink">
    <path d="M9.5,6.69117647 L18.3359896,0.102941176 C18.2146667,0.0520882353 18.0830521,0 17.9445104,0 L1.05548958,0 C0.917145833,0 0.78553125,0.0520882353 0.664010417,0.102941176 L9.5,6.69117647 Z M9.5,8.04094118 L0.0146458333,0.992970588 C0.00791666667,1.04258824 0,1.09241176 0,1.14388235 L0,12.8563235 C0,13.4618235 0.473614583,14 1.05548958,14 L17.9445104,14 C18.5263854,14 19,13.4618235 19,12.8561176 L19,1.14388235 C19,1.09241176 18.9920833,1.04279412 18.9853542,0.993176471 L9.5,8.04094118 Z" fill="#0060BC"></path>
</svg>

<svg width="30" height="25" viewBox="0 0 19 14" xmlns="http://www.w3.org/2000/svg"><path d="M9.5 6.69L18.336.104c-.12-.05-.253-.103-.39-.103H1.055c-.14 0-.27.052-.392.103L9.5 6.69zm0 1.35L.015.994c-.007.05-.015.1-.015.15v11.713C0 13.462.474 14 1.055 14h16.89c.58 0 1.055-.538 1.055-1.144V1.144c0-.052-.008-.1-.015-.15L9.5 8.04z" fill="#0060BC"/></svg>
